<?xml version="1.0" encoding="UTF-8"?>
<map version="1.10" tiledversion="1.12.0" orientation="orthogonal" renderorder="right-down" width="18" height="32" tilewidth="32" tileheight="32" infinite="0" nextlayerid="5" nextobjectid="1">
 <tileset firstgid="1" source="Suelo.tsx"/>
 <tileset firstgid="5" source="Nubes.tsx"/>
 <layer id="1" name="Capa de patrones 1" width="18" height="32">
  <data encoding="csv">
1,1,1,1,1,1,1,1,1,1,1,1,1,1,1,1,1,1,
1,1,1,1,1,1,1,1,1,1,1,1,1,1,1,1,1,1,
1,1,1,1,1,1,1,1,1,1,1,1,1,1,1,1,1,1,
1,1,1,1,1,1,1,1,1,1,1,1,1,1,1,1,1,1,
1,1,1,1,1,1,1,1,1,1,1,1,1,1,1,1,1,1,
1,1,1,1,1,1,1,1,1,1,1,1,1,1,1,1,1,1,
1,1,1,1,1,1,1,1,1,1,1,1,1,1,1,1,1,1,
1,1,1,1,1,1,1,1,1,1,1,1,1,1,1,1,1,1,
1,1,1,1,1,1,1,1,1,1,1,1,1,1,1,1,1,1,
1,1,1,1,1,1,1,1,1,1,1,1,1,1,1,1,1,1,
1,1,1,1,1,1,1,1,1,1,1,1,1,1,1,1,1,1,
1,1,1,1,1,1,1,1,1,1,1,1,1,1,1,1,1,1,
1,1,1,1,1,1,1,1,1,1,1,1,1,1,1,1,1,1,
1,1,1,1,1,1,1,1,1,1,1,1,1,1,1,1,1,1,
1,1,1,1,1,1,1,1,1,1,1,1,1,1,1,1,1,1,
1,1,1,1,1,1,1,1,1,1,1,1,1,1,1,1,1,1,
1,1,1,1,1,1,1,1,1,1,1,1,1,1,1,1,1,1,
1,1,1,1,1,1,1,1,1,1,1,1,1,1,1,1,1,1,
1,1,1,1,1,1,1,1,1,1,1,1,1,1,1,1,1,1,
1,1,1,1,1,1,1,1,1,1,1,1,1,1,1,1,1,1,
1,1,1,1,1,1,1,1,1,1,1,1,1,1,1,1,1,1,
1,1,1,1,1,1,1,1,1,1,1,1,1,1,1,1,1,1,
1,1,1,1,1,1,1,1,1,1,1,1,1,1,1,1,1,1,
1,1,1,1,1,1,1,1,1,1,1,1,1,1,1,1,1,1,
1,1,1,1,1,1,1,1,1,1,1,1,1,1,1,1,1,1,
1,1,1,1,1,1,1,1,1,1,1,1,1,1,1,1,1,1,
1,1,1,1,1,1,1,1,1,1,1,1,1,1,1,1,1,1,
1,1,1,1,1,1,1,1,1,1,1,1,1,1,1,1,1,1,
1,1,1,1,1,1,1,1,1,1,1,1,1,1,1,1,1,1,
1,1,1,1,1,1,1,1,1,1,1,1,1,1,1,1,1,1,
1,1,1,1,1,1,1,1,1,1,1,1,1,1,1,1,1,1,
1,1,1,1,1,1,1,1,1,1,1,1,1,1,1,1,1,1
</data>
 </layer>
 <layer id="3" name="Deco" width="18" height="32">
  <data encoding="csv">
0,0,0,0,0,0,0,0,0,0,0,0,2,2,0,0,0,0,
0,0,0,0,0,0,0,0,0,0,0,0,2,0,0,2,2,0,
0,3,3,0,0,4,4,4,0,0,0,2,2,0,0,2,2,0,
0,3,3,0,0,4,4,4,4,4,2,2,0,0,0,0,0,0,
0,0,3,0,0,4,3,4,2,4,4,4,0,0,0,0,0,0,
0,1,1,0,0,4,4,2,2,2,2,4,0,0,0,4,4,0,
0,1,1,1,4,4,2,4,2,2,3,0,0,0,0,4,0,0,
0,0,1,1,3,3,4,2,2,2,3,0,0,0,0,4,0,0,
0,0,1,1,3,3,4,2,4,2,2,0,0,0,0,4,0,0,
0,0,4,1,1,3,3,0,4,2,2,0,0,0,0,4,0,0,
0,0,3,1,1,2,3,3,3,3,2,0,0,0,0,4,0,0,
0,0,3,1,2,1,4,3,3,3,2,0,0,0,1,1,1,0,
0,3,3,1,2,3,1,3,3,2,2,3,1,1,1,4,1,1,
0,3,0,1,2,3,1,1,3,2,2,0,3,3,0,4,0,0,
0,3,0,1,2,2,3,1,1,3,2,2,0,3,3,4,0,0,
0,3,0,1,2,2,3,4,1,1,4,2,0,0,3,4,0,0,
0,3,0,1,2,2,2,4,4,1,1,2,2,0,3,0,0,0,
0,3,2,1,0,2,4,4,4,4,1,1,2,2,0,0,0,0,
0,3,0,1,0,2,4,4,2,4,0,4,4,2,2,0,0,0,
0,0,2,1,0,2,4,4,4,4,4,0,4,0,2,2,0,0,
0,0,2,1,0,2,4,3,4,2,4,0,4,0,0,2,0,0,
0,0,2,1,0,2,4,3,4,2,4,4,4,3,0,2,0,0,
0,0,0,1,1,2,2,0,3,0,2,0,3,3,0,2,2,0,
0,0,0,2,1,3,2,4,3,0,2,3,3,4,2,2,2,0,
0,0,0,0,1,1,2,4,4,0,3,3,0,2,2,2,0,0,
0,0,0,0,0,1,2,2,2,4,3,1,1,1,4,2,0,0,
0,0,0,0,0,0,3,1,1,1,1,1,4,4,4,2,0,0,
2,0,0,0,0,2,3,3,3,3,2,2,0,4,4,2,0,0,
2,2,2,0,2,2,3,3,0,0,0,0,0,4,0,2,0,0,
0,0,2,2,2,0,0,0,0,0,0,0,0,0,0,0,0,0,
0,0,0,0,0,2,2,2,2,0,0,0,0,0,0,0,0,0,
0,0,0,0,0,0,0,0,0,2,2,0,0,0,0,0,0,0
</data>
 </layer>
 <layer id="4" name="nubes" width="18" height="32">
  <data encoding="csv">
5,5,5,0,0,0,0,0,0,0,0,0,0,0,0,0,0,0,
5,5,5,0,0,0,0,0,0,0,0,0,0,0,0,0,0,0,
5,5,5,0,0,0,0,0,0,0,0,0,0,0,0,0,0,0,
5,5,5,0,0,0,0,0,0,0,0,0,0,0,0,0,0,0,
5,5,5,0,0,0,0,0,0,0,0,0,0,0,0,0,0,0,
5,5,5,5,5,5,5,5,5,5,5,5,5,5,5,5,5,5,
5,5,5,5,5,5,5,5,5,5,5,5,5,5,5,5,5,5,
5,5,5,5,5,5,5,5,5,5,5,5,5,5,5,5,5,5,
5,5,5,5,5,5,5,5,5,5,5,5,5,5,5,5,5,5,
5,5,5,5,5,5,5,5,5,5,5,5,5,5,5,5,5,5,
5,5,5,0,0,0,0,0,0,0,0,0,0,0,0,5,5,5,
5,5,5,0,0,0,0,0,0,0,0,0,0,0,0,5,5,5,
5,5,5,0,0,0,0,0,0,0,0,0,0,0,0,5,5,5,
5,5,5,0,0,0,0,0,0,0,0,0,0,0,0,5,5,5,
5,5,5,0,0,0,0,0,0,0,0,0,0,0,0,5,5,5,
5,5,5,0,0,0,0,0,0,0,0,0,0,0,0,5,5,5,
5,5,5,0,0,0,0,0,0,0,0,0,0,0,0,5,5,5,
5,5,5,0,0,0,0,0,0,0,0,0,0,0,0,5,5,5,
5,5,5,0,0,0,0,0,0,0,0,0,0,0,0,5,5,5,
5,5,5,0,0,0,0,0,0,0,0,0,0,0,0,5,5,5,
5,5,5,0,0,0,0,0,0,0,0,0,0,0,0,5,5,5,
5,5,5,0,0,0,0,0,0,0,0,0,0,0,0,5,5,5,
5,5,5,5,5,5,5,5,5,5,5,5,5,5,5,5,5,5,
5,5,5,5,5,5,5,5,5,5,5,5,5,5,5,5,5,5,
5,5,5,5,5,5,5,5,5,5,5,5,5,5,5,5,5,5,
5,5,5,5,5,5,5,5,5,5,5,5,5,5,5,5,5,5,
5,5,5,5,5,5,5,5,5,5,5,5,5,5,5,5,5,5,
0,0,0,0,0,0,0,0,0,0,0,0,0,0,0,0,0,0,
0,0,0,0,0,0,0,0,0,0,0,0,0,0,0,0,0,0,
0,0,0,0,0,0,0,0,0,0,0,0,0,0,0,0,0,0,
0,0,0,0,0,0,0,0,0,0,0,0,0,0,0,0,0,0,
0,0,0,0,0,0,0,0,0,0,0,0,0,0,0,0,0,0
</data>
 </layer>
</map>
