<?xml version="1.0" encoding="UTF-8"?>
<map version="1.10" tiledversion="1.12.0" orientation="orthogonal" renderorder="right-down" width="22" height="73" tilewidth="32" tileheight="32" infinite="0" nextlayerid="4" nextobjectid="1">
 <tileset firstgid="1" source="AllTiles.tsx"/>
 <tileset firstgid="37" source="agua.tsx"/>
 <layer id="1" name="Tiles" width="22" height="73">
  <data encoding="csv">
0,0,0,0,0,0,0,0,0,0,0,0,0,0,0,0,0,0,0,0,0,0,
0,0,0,0,0,0,0,0,0,0,0,0,0,0,0,0,0,0,0,0,0,0,
0,0,0,0,0,0,0,0,0,0,0,0,0,0,0,0,0,0,0,0,0,0,
0,0,0,0,0,0,0,0,0,0,0,0,0,0,0,0,0,0,0,0,0,0,
0,0,0,0,0,0,0,0,0,0,0,0,0,0,0,0,0,0,0,0,0,0,
0,0,0,0,0,0,0,0,0,0,0,0,0,0,0,0,0,0,0,0,0,0,
0,0,0,0,0,3,3,3,3,3,3,3,3,3,3,3,3,0,0,0,0,0,
0,0,0,0,0,3,3,3,3,3,3,3,3,3,3,3,3,0,0,0,0,0,
0,0,0,0,0,3,3,3,3,3,3,3,3,3,3,3,3,0,0,0,0,0,
0,0,0,0,0,3,3,3,3,3,3,3,3,3,3,3,3,0,0,0,0,0,
0,0,0,0,0,3,3,3,3,3,3,3,3,3,3,3,3,0,0,0,0,0,
0,0,0,0,0,3,3,3,3,3,3,3,3,3,3,3,3,0,0,0,0,0,
0,0,0,0,0,3,3,3,3,3,3,3,3,3,3,3,3,0,0,0,0,0,
0,0,0,0,0,3,3,3,3,3,3,3,3,3,3,3,3,0,0,0,0,0,
0,0,0,0,0,3,3,3,3,3,3,3,3,3,3,3,3,0,0,0,0,0,
0,0,0,0,0,3,3,3,3,3,3,3,3,3,3,3,3,0,0,0,0,0,
0,0,0,0,0,3,3,3,3,3,3,3,3,3,3,3,3,0,0,0,0,0,
0,0,0,0,0,3,3,3,3,3,3,3,3,3,3,3,3,0,0,0,0,0,
0,0,0,0,0,3,3,3,3,3,3,3,3,3,3,3,3,0,0,0,0,0,
0,0,0,0,0,3,3,3,3,3,3,3,3,3,3,3,3,0,0,0,0,0,
0,0,0,0,0,3,3,3,3,3,3,3,3,3,3,3,3,0,0,0,0,0,
0,0,0,0,0,3,26,18,18,18,18,18,18,18,18,35,3,0,0,0,0,0,
0,0,0,0,0,3,17,2,2,2,2,2,2,2,2,8,3,0,0,0,0,0,
0,0,0,0,0,3,17,2,2,2,2,2,2,2,2,8,3,0,0,0,0,0,
0,0,0,0,0,3,17,2,2,2,2,2,2,2,2,8,3,0,0,0,0,0,
0,0,0,0,0,3,17,2,2,2,2,2,2,2,2,8,3,0,0,0,0,0,
0,0,0,0,0,3,17,2,2,2,2,2,2,2,2,8,3,0,0,0,0,0,
0,0,0,0,0,3,17,2,2,2,2,2,2,2,2,8,3,0,0,0,0,0,
0,0,0,0,0,3,17,2,2,2,2,2,2,2,2,8,3,0,0,0,0,0,
0,0,0,0,0,3,17,2,2,2,2,2,2,2,2,8,3,0,0,0,0,0,
0,0,0,0,0,3,17,2,2,2,2,2,2,2,2,8,3,0,0,0,0,0,
0,0,0,0,0,3,17,2,2,2,2,2,2,2,2,8,3,0,0,0,0,0,
0,0,0,0,0,3,17,2,2,2,2,2,2,2,2,8,3,0,0,0,0,0,
0,0,0,0,0,3,17,2,2,2,2,2,2,2,2,8,3,0,0,0,0,0,
0,0,0,0,0,3,17,2,2,2,2,2,2,2,2,8,3,0,0,0,0,0,
0,0,0,0,0,3,17,2,2,2,2,2,2,2,2,8,3,0,0,0,0,0,
0,0,0,0,0,3,25,9,9,9,9,9,9,9,9,34,3,0,0,0,0,0,
0,0,0,0,0,3,16,4,4,4,4,4,4,4,4,7,3,0,0,0,0,0,
0,0,0,0,0,3,16,4,4,4,4,4,4,4,4,7,3,0,0,0,0,0,
0,0,0,0,0,3,16,4,4,4,4,4,4,4,4,7,3,0,0,0,0,0,
0,0,0,0,0,3,16,4,4,4,4,4,4,4,4,7,3,0,0,0,0,0,
0,0,0,0,0,3,16,4,4,4,4,4,4,4,4,7,3,0,0,0,0,0,
0,0,0,0,0,3,16,4,4,4,4,4,4,4,4,7,3,0,0,0,0,0,
0,0,0,0,0,3,16,4,4,4,4,4,4,4,4,7,3,0,0,0,0,0,
0,0,0,0,0,3,16,4,4,4,4,4,4,4,4,7,3,0,0,0,0,0,
0,0,0,0,0,3,16,4,4,4,4,4,4,4,4,7,3,0,0,0,0,0,
0,0,0,0,0,3,16,4,4,4,4,4,4,4,4,7,3,0,0,0,0,0,
0,0,0,0,0,3,16,4,4,4,4,4,4,4,4,7,3,0,0,0,0,0,
0,0,0,0,0,3,16,4,4,4,4,4,4,4,4,7,3,0,0,0,0,0,
0,0,0,0,0,3,16,4,4,4,4,4,4,4,4,7,3,0,0,0,0,0,
0,0,0,0,0,3,16,4,4,4,4,4,4,4,4,7,3,0,0,0,0,0,
0,0,0,0,0,3,24,15,15,15,15,15,15,15,15,33,3,0,0,0,0,0,
0,0,0,0,0,3,5,1,1,1,1,1,1,1,1,6,3,0,0,0,0,0,
0,0,0,0,0,3,5,1,1,1,1,1,1,1,1,6,3,0,0,0,0,0,
0,0,0,0,0,3,5,1,1,1,1,1,1,1,1,6,3,0,0,0,0,0,
0,0,0,0,0,3,5,1,1,1,1,1,1,1,1,6,3,0,0,0,0,0,
0,0,0,0,0,3,5,1,1,1,1,1,1,1,1,6,3,0,0,0,0,0,
0,0,0,0,0,3,5,1,1,1,1,1,1,1,1,6,3,0,0,0,0,0,
0,0,0,0,0,3,5,1,1,1,1,1,1,1,1,6,3,0,0,0,0,0,
0,0,0,0,0,3,5,1,1,1,1,1,1,1,1,6,3,0,0,0,0,0,
0,0,0,0,0,3,5,1,1,1,1,1,1,1,1,6,3,0,0,0,0,0,
0,0,0,0,0,3,5,1,1,1,1,1,1,1,1,6,3,0,0,0,0,0,
0,0,0,0,0,3,5,1,1,1,1,1,1,1,1,6,3,0,0,0,0,0,
0,0,0,0,0,3,5,1,1,1,1,1,1,1,1,6,3,0,0,0,0,0,
0,0,0,0,0,3,5,1,1,1,1,1,1,1,1,6,3,0,0,0,0,0,
0,0,0,0,0,3,14,23,23,23,23,23,23,23,23,32,3,0,0,0,0,0,
0,0,0,0,0,3,3,3,3,3,3,3,3,3,3,3,3,0,0,0,0,0,
0,0,0,0,0,0,0,0,0,0,0,0,0,0,0,0,0,0,0,0,0,0,
0,0,0,0,0,0,0,0,0,0,0,0,0,0,0,0,0,0,0,0,0,0,
0,0,0,0,0,0,0,0,0,0,0,0,0,0,0,0,0,0,0,0,0,0,
0,0,0,0,0,0,0,0,0,0,0,0,0,0,0,0,0,0,0,0,0,0,
0,0,0,0,0,0,0,0,0,0,0,0,0,0,0,0,0,0,0,0,0,0,
0,0,0,0,0,0,0,0,0,0,0,0,0,0,0,0,0,0,0,0,0,0
</data>
 </layer>
 <layer id="3" name="Decoracion" width="22" height="73">
  <data encoding="csv">
0,0,0,0,0,0,0,0,0,0,0,0,0,0,0,0,0,0,0,0,0,0,
0,0,0,0,0,0,0,0,0,0,0,0,0,0,0,0,0,0,0,0,0,0,
0,0,0,0,0,0,0,0,0,0,0,0,0,0,0,0,0,0,0,0,0,0,
0,0,0,0,0,0,0,0,0,0,0,0,0,0,0,0,0,0,0,0,0,0,
0,0,0,0,0,0,0,0,0,0,0,0,0,0,0,0,0,0,0,0,0,0,
0,0,0,0,0,0,0,0,0,0,0,0,0,0,0,0,0,0,0,0,0,0,
0,0,0,0,0,30,30,30,12,12,30,21,12,12,30,30,30,0,0,0,0,0,
0,0,0,0,0,12,30,30,30,30,12,30,12,12,12,30,12,0,0,0,0,0,
0,0,0,0,0,21,12,21,30,30,12,12,30,30,30,12,12,0,0,0,0,0,
0,0,0,0,0,12,12,30,30,12,30,30,12,30,21,30,30,0,0,0,0,0,
0,0,0,0,0,12,12,30,12,12,30,12,30,30,30,30,21,0,0,0,0,0,
0,0,0,0,0,30,12,30,12,30,12,21,12,12,30,12,30,0,0,0,0,0,
0,0,0,0,0,12,12,12,12,30,12,12,12,30,12,12,12,0,0,0,0,0,
0,0,0,0,0,21,12,12,12,30,12,30,12,12,12,12,21,0,0,0,0,0,
0,0,0,0,0,30,12,12,21,12,30,30,30,12,21,12,12,0,0,0,0,0,
0,0,0,0,0,12,30,12,12,30,12,30,12,12,30,12,12,0,0,0,0,0,
0,0,0,0,0,30,12,30,12,30,12,12,12,12,30,12,12,0,0,0,0,0,
0,0,0,0,0,30,30,12,30,21,12,12,12,12,30,12,21,0,0,0,0,0,
0,0,0,0,0,30,30,30,30,30,30,12,30,30,12,12,30,0,0,0,0,0,
0,0,0,0,0,30,12,12,30,30,30,12,12,12,21,12,30,0,0,0,0,0,
0,0,0,0,0,21,30,30,30,30,12,12,12,12,30,12,30,0,0,0,0,0,
0,0,0,0,0,30,0,0,0,0,0,0,0,0,0,0,12,0,0,0,0,0,
0,0,0,0,0,30,0,20,29,11,29,11,29,29,20,0,12,0,0,0,0,0,
0,0,0,0,0,12,0,11,29,29,29,29,29,11,29,0,21,0,0,0,0,0,
0,0,0,0,0,21,0,11,11,11,29,20,11,29,29,0,30,0,0,0,0,0,
0,0,0,0,0,12,0,20,29,29,29,29,11,11,11,0,30,0,0,0,0,0,
0,0,0,0,0,12,0,29,29,29,11,29,11,11,29,0,30,0,0,0,0,0,
0,0,0,0,0,30,0,29,11,29,11,29,29,29,11,0,12,0,0,0,0,0,
0,0,0,0,0,12,0,29,29,11,11,20,11,20,29,0,21,0,0,0,0,0,
0,0,0,0,0,12,0,11,20,29,29,29,29,11,29,0,12,0,0,0,0,0,
0,0,0,0,0,12,0,11,29,11,11,11,29,29,11,0,12,0,0,0,0,0,
0,0,0,0,0,30,0,29,11,29,29,11,11,29,29,0,12,0,0,0,0,0,
0,0,0,0,0,30,0,29,11,11,11,11,29,20,11,0,12,0,0,0,0,0,
0,0,0,0,0,21,0,20,11,11,29,11,29,11,11,0,30,0,0,0,0,0,
0,0,0,0,0,30,0,29,29,20,11,29,20,11,11,0,12,0,0,0,0,0,
0,0,0,0,0,30,0,29,11,11,29,11,11,29,29,0,12,0,0,0,0,0,
0,0,0,0,0,30,0,0,0,0,0,0,0,0,0,0,30,0,0,0,0,0,
0,0,0,0,0,12,0,13,13,22,13,13,13,13,13,0,30,0,0,0,0,0,
0,0,0,0,0,12,0,31,13,31,13,13,13,13,22,0,30,0,0,0,0,0,
0,0,0,0,0,12,0,13,13,13,13,22,13,13,13,0,12,0,0,0,0,0,
0,0,0,0,0,12,0,13,22,13,13,13,31,13,13,0,12,0,0,0,0,0,
0,0,0,0,0,21,0,13,13,22,13,13,13,13,13,0,12,0,0,0,0,0,
0,0,0,0,0,30,0,13,13,13,13,13,13,13,13,0,21,0,0,0,0,0,
0,0,0,0,0,12,0,31,13,13,31,13,13,22,31,0,30,0,0,0,0,0,
0,0,0,0,0,30,0,13,13,13,13,13,13,13,13,0,30,0,0,0,0,0,
0,0,0,0,0,12,0,13,13,13,13,13,13,13,13,0,12,0,0,0,0,0,
0,0,0,0,0,12,0,13,31,13,13,13,31,13,13,0,21,0,0,0,0,0,
0,0,0,0,0,30,0,13,13,13,13,13,13,13,13,0,30,0,0,0,0,0,
0,0,0,0,0,21,0,13,13,13,13,22,13,22,13,0,12,0,0,0,0,0,
0,0,0,0,0,30,0,22,13,13,13,13,13,13,13,0,30,0,0,0,0,0,
0,0,0,0,0,30,0,31,13,13,13,31,13,13,13,0,12,0,0,0,0,0,
0,0,0,0,0,30,0,0,0,0,0,0,0,0,0,0,30,0,0,0,0,0,
0,0,0,0,0,30,0,28,10,28,19,10,19,19,28,0,30,0,0,0,0,0,
0,0,0,0,0,30,0,19,19,10,19,28,10,28,10,0,30,0,0,0,0,0,
0,0,0,0,0,21,0,28,28,28,10,10,10,10,10,0,21,0,0,0,0,0,
0,0,0,0,0,12,0,19,10,10,10,10,19,28,28,0,12,0,0,0,0,0,
0,0,0,0,0,12,0,28,28,10,19,19,19,28,19,0,12,0,0,0,0,0,
0,0,0,0,0,30,0,10,10,10,10,19,28,10,28,0,30,0,0,0,0,0,
0,0,0,0,0,30,0,19,19,19,10,19,19,10,19,0,30,0,0,0,0,0,
0,0,0,0,0,30,0,10,19,28,19,19,10,10,28,0,12,0,0,0,0,0,
0,0,0,0,0,12,0,19,10,10,19,28,10,19,19,0,30,0,0,0,0,0,
0,0,0,0,0,21,0,28,19,19,10,28,10,10,10,0,12,0,0,0,0,0,
0,0,0,0,0,30,0,10,10,28,10,28,28,10,19,0,30,0,0,0,0,0,
0,0,0,0,0,12,0,19,19,28,19,19,10,19,19,0,21,0,0,0,0,0,
0,0,0,0,0,30,0,28,28,10,10,19,10,19,10,0,12,0,0,0,0,0,
0,0,0,0,0,30,0,0,0,0,0,0,0,0,0,0,30,0,0,0,0,0,
0,0,0,0,0,12,12,21,30,30,12,12,30,12,30,30,21,0,0,0,0,0,
0,0,0,0,0,0,0,0,0,0,0,0,0,0,0,0,0,0,0,0,0,0,
0,0,0,0,0,0,0,0,0,0,0,0,0,0,0,0,0,0,0,0,0,0,
0,0,0,0,0,0,0,0,0,0,0,0,0,0,0,0,0,0,0,0,0,0,
0,0,0,0,0,0,0,0,0,0,0,0,0,0,0,0,0,0,0,0,0,0,
0,0,0,0,0,0,0,0,0,0,0,0,0,0,0,0,0,0,0,0,0,0,
0,0,0,0,0,0,0,0,0,0,0,0,0,0,0,0,0,0,0,0,0,0
</data>
 </layer>
 <layer id="2" name="Agua" width="22" height="73">
  <data encoding="csv">
45,45,45,45,45,45,45,45,45,45,45,45,45,45,45,45,45,45,45,45,45,45,
41,45,45,45,45,45,45,45,45,45,45,45,45,45,45,45,45,45,45,45,45,49,
37,41,45,45,45,45,45,45,45,45,45,45,45,45,45,45,45,45,45,45,49,53,
37,37,41,45,45,45,45,45,45,45,45,45,45,45,45,45,45,45,45,49,53,53,
37,37,37,41,45,45,45,45,45,45,45,45,45,45,45,45,45,45,49,53,53,53,
37,37,37,37,43,47,47,47,47,47,47,47,47,47,47,47,47,51,53,53,53,53,
37,37,37,37,39,0,0,0,0,0,0,0,0,0,0,0,0,55,53,53,53,53,
37,37,37,37,39,0,0,0,0,0,0,0,0,0,0,0,0,55,53,53,53,53,
37,37,37,37,39,0,0,0,0,0,0,0,0,0,0,0,0,55,53,53,53,53,
37,37,37,37,39,0,0,0,0,0,0,0,0,0,0,0,0,55,53,53,53,53,
37,37,37,37,39,0,0,0,0,0,0,0,0,0,0,0,0,55,53,53,53,53,
37,37,37,37,39,0,0,0,0,0,0,0,0,0,0,0,0,55,53,53,53,53,
37,37,37,37,39,0,0,0,0,0,0,0,0,0,0,0,0,55,53,53,53,53,
37,37,37,37,39,0,0,0,0,0,0,0,0,0,0,0,0,55,53,53,53,53,
37,37,37,37,39,0,0,0,0,0,0,0,0,0,0,0,0,55,53,53,53,53,
37,37,37,37,39,0,0,0,0,0,0,0,0,0,0,0,0,55,53,53,53,53,
37,37,37,37,39,0,0,0,0,0,0,0,0,0,0,0,0,55,53,53,53,53,
37,37,37,37,39,0,0,0,0,0,0,0,0,0,0,0,0,55,53,53,53,53,
37,37,37,37,39,0,0,0,0,0,0,0,0,0,0,0,0,55,53,53,53,53,
37,37,37,37,39,0,0,0,0,0,0,0,0,0,0,0,0,55,53,53,53,53,
37,37,37,37,39,0,0,0,0,0,0,0,0,0,0,0,0,55,53,53,53,53,
37,37,37,37,39,0,0,0,0,0,0,0,0,0,0,0,0,55,53,53,53,53,
37,37,37,37,39,0,0,0,0,0,0,0,0,0,0,0,0,55,53,53,53,53,
37,37,37,37,39,0,0,0,0,0,0,0,0,0,0,0,0,55,53,53,53,53,
37,37,37,37,39,0,0,0,0,0,0,0,0,0,0,0,0,55,53,53,53,53,
37,37,37,37,39,0,0,0,0,0,0,0,0,0,0,0,0,55,53,53,53,53,
37,37,37,37,39,0,0,0,0,0,0,0,0,0,0,0,0,55,53,53,53,53,
37,37,37,37,39,0,0,0,0,0,0,0,0,0,0,0,0,55,53,53,53,53,
37,37,37,37,39,0,0,0,0,0,0,0,0,0,0,0,0,55,53,53,53,53,
37,37,37,37,39,0,0,0,0,0,0,0,0,0,0,0,0,55,53,53,53,53,
37,37,37,37,39,0,0,0,0,0,0,0,0,0,0,0,0,55,53,53,53,53,
37,37,37,37,39,0,0,0,0,0,0,0,0,0,0,0,0,55,53,53,53,53,
37,37,37,37,39,0,0,0,0,0,0,0,0,0,0,0,0,55,53,53,53,53,
37,37,37,37,39,0,0,0,0,0,0,0,0,0,0,0,0,55,53,53,53,53,
37,37,37,37,39,0,0,0,0,0,0,0,0,0,0,0,0,55,53,53,53,53,
37,37,37,37,39,0,0,0,0,0,0,0,0,0,0,0,0,55,53,53,53,53,
37,37,37,37,39,0,0,0,0,0,0,0,0,0,0,0,0,55,53,53,53,53,
37,37,37,37,39,0,0,0,0,0,0,0,0,0,0,0,0,55,53,53,53,53,
37,37,37,37,39,0,0,0,0,0,0,0,0,0,0,0,0,55,53,53,53,53,
37,37,37,37,39,0,0,0,0,0,0,0,0,0,0,0,0,55,53,53,53,53,
37,37,37,37,39,0,0,0,0,0,0,0,0,0,0,0,0,55,53,53,53,53,
37,37,37,37,39,0,0,0,0,0,0,0,0,0,0,0,0,55,53,53,53,53,
37,37,37,37,39,0,0,0,0,0,0,0,0,0,0,0,0,55,53,53,53,53,
37,37,37,37,39,0,0,0,0,0,0,0,0,0,0,0,0,55,53,53,53,53,
37,37,37,37,39,0,0,0,0,0,0,0,0,0,0,0,0,55,53,53,53,53,
37,37,37,37,39,0,0,0,0,0,0,0,0,0,0,0,0,55,53,53,53,53,
37,37,37,37,39,0,0,0,0,0,0,0,0,0,0,0,0,55,53,53,53,53,
37,37,37,37,39,0,0,0,0,0,0,0,0,0,0,0,0,55,53,53,53,53,
37,37,37,37,39,0,0,0,0,0,0,0,0,0,0,0,0,55,53,53,53,53,
37,37,37,37,39,0,0,0,0,0,0,0,0,0,0,0,0,55,53,53,53,53,
37,37,37,37,39,0,0,0,0,0,0,0,0,0,0,0,0,55,53,53,53,53,
37,37,37,37,39,0,0,0,0,0,0,0,0,0,0,0,0,55,53,53,53,53,
37,37,37,37,39,0,0,0,0,0,0,0,0,0,0,0,0,55,53,53,53,53,
37,37,37,37,39,0,0,0,0,0,0,0,0,0,0,0,0,55,53,53,53,53,
37,37,37,37,39,0,0,0,0,0,0,0,0,0,0,0,0,55,53,53,53,53,
37,37,37,37,39,0,0,0,0,0,0,0,0,0,0,0,0,55,53,53,53,53,
37,37,37,37,39,0,0,0,0,0,0,0,0,0,0,0,0,55,53,53,53,53,
37,37,37,37,39,0,0,0,0,0,0,0,0,0,0,0,0,55,53,53,53,53,
37,37,37,37,39,0,0,0,0,0,0,0,0,0,0,0,0,55,53,53,53,53,
37,37,37,37,39,0,0,0,0,0,0,0,0,0,0,0,0,55,53,53,53,53,
37,37,37,37,39,0,0,0,0,0,0,0,0,0,0,0,0,55,53,53,53,53,
37,37,37,37,39,0,0,0,0,0,0,0,0,0,0,0,0,55,53,53,53,53,
37,37,37,37,39,0,0,0,0,0,0,0,0,0,0,0,0,55,53,53,53,53,
37,37,37,37,39,0,0,0,0,0,0,0,0,0,0,0,0,55,53,53,53,53,
37,37,37,37,39,0,0,0,0,0,0,0,0,0,0,0,0,55,53,53,53,53,
37,37,37,37,39,0,0,0,0,0,0,0,0,0,0,0,0,55,53,53,53,53,
37,37,37,37,39,0,0,0,0,0,0,0,0,0,0,0,0,55,53,53,53,53,
37,37,37,37,67,63,63,63,63,63,63,63,63,63,63,63,63,59,53,53,53,53,
37,37,37,65,61,61,61,61,61,61,61,61,61,61,61,61,61,61,57,53,53,53,
37,37,65,61,61,61,61,61,61,61,61,61,61,61,61,61,61,61,61,57,53,53,
37,65,61,61,61,61,61,61,61,61,61,61,61,61,61,61,61,61,61,61,57,53,
65,61,61,61,61,61,61,61,61,61,61,61,61,61,61,61,61,61,61,61,61,57,
61,61,61,61,61,61,61,61,61,61,61,61,61,61,61,61,61,61,61,61,61,61
</data>
 </layer>
</map>
